src/assets/replay.svg

<svg height="25" viewBox="0 0 25 25" width="25" xmlns="http://www.w3.org/2000/svg"><path d="m8.79074 21.3741c4.85566 0 8.78766-3.9351 8.78766-8.7974 0-.5943-.4851-1.0825-1.0794-1.0825-.5974 0-1.0891.4882-1.0891 1.0825 0 3.6542-2.9649 6.6191-6.61916 6.6191-3.65737 0-6.61913-2.9649-6.61913-6.6191 0-3.65741 2.96176-6.61918 6.61913-6.61918.76045 0 1.49116.12831 2.16946.36803.6502.23569 1.4629-.16552 1.4695-.99769.0067-.5912-.4203-.92892-.8237-1.06073-.8674-.30764-1.82003-.47455-2.81526-.47455-4.85879 0-8.79074 3.93505-8.79074 8.79072 0 4.8557 3.93195 8.7908 8.79074 8.7908zm2.44156-16.24196-3.42384 3.39186c-.20018.18996-.30225.42254-.30225.71457 0 .60138.46246 1.06743 1.05052 1.06743.30625 0 .55035-.1097.74342-.2961l4.00165-4.03983c.2317-.23168.3409-.49531.3409-.794 0-.28937-.1189-.56943-.3409-.7909l-3.99499-4.0665c-.20594-.202381-.44383-.31867-.75008-.31867-.58806 0-1.05052.485544-1.05052 1.08337 0 .29203.09586.54414.29559.72789z" fill="#343846" transform="translate(4 2)"/></svg>

<?xml version="1.0" encoding="UTF-8"?>
<svg width="25px" height="25px" viewBox="0 0 25 25" version="1.1" xmlns="http://www.w3.org/2000/svg" xmlns:xlink="http://www.w3.org/1999/xlink">
    <title>arrow.clockwise</title>
    <g id="Page-1" stroke="none" stroke-width="1" fill="none" fill-rule="evenodd">
        <g id="arrow.clockwise" transform="translate(4, 2)" fill="#343846" fill-rule="nonzero">
            <path d="M8.79074,21.3741 C13.6464,21.3741 17.5784,17.439 17.5784,12.5767 C17.5784,11.9824 17.0933,11.4942 16.499,11.4942 C15.9016,11.4942 15.4099,11.9824 15.4099,12.5767 C15.4099,16.2309 12.445,19.1958 8.79074,19.1958 C5.13337,19.1958 2.17161,16.2309 2.17161,12.5767 C2.17161,8.91929 5.13337,5.95752 8.79074,5.95752 C9.55119,5.95752 10.2819,6.08583 10.9602,6.32555 C11.6104,6.56124 12.4231,6.16003 12.4297,5.32786 C12.4364,4.73666 12.0094,4.39894 11.606,4.26713 C10.7386,3.95949 9.78597,3.79258 8.79074,3.79258 C3.93195,3.79258 0,7.72763 0,12.5833 C0,17.439 3.93195,21.3741 8.79074,21.3741 Z M11.2323,5.13214 L7.80846,8.524 C7.60828,8.71396 7.50621,8.94654 7.50621,9.23857 C7.50621,9.83995 7.96867,10.306 8.55673,10.306 C8.86298,10.306 9.10708,10.1963 9.30015,10.0099 L13.3018,5.97007 C13.5335,5.73839 13.6427,5.47476 13.6427,5.17607 C13.6427,4.8867 13.5238,4.60664 13.3018,4.38517 L9.30681,0.31867 C9.10087,0.116289 8.86298,0 8.55673,0 C7.96867,0 7.50621,0.485544 7.50621,1.08337 C7.50621,1.3754 7.60207,1.62751 7.8018,1.81126 L11.2323,5.13214 Z" id="Shape"></path>
        </g>
    </g>
</svg>
